symbols/web/bike_scooter/materialsymbolsoutlined/bike_scooter_wght600grad200fill1_24px.svg

<svg xmlns="http://www.w3.org/2000/svg" height="24" width="24"><path d="M9.95 21.25q-1.325 0-2.262-.938-.938-.937-.938-2.262 0-1.35.938-2.288.937-.937 2.262-.937 1.35 0 2.288.937.937.938.937 2.288 0 1.325-.937 2.262-.938.938-2.288.938ZM-.2 19.2v-2.375h3.775q.25-1.725 1.475-3.1t2.925-1.875l-1.35-5.8h-3.95V3.675h4q.825 0 1.462.487.638.488.813 1.313l1.925 8.4h-.95q-1.675 0-2.888 1.225-1.212 1.225-1.212 2.925V19.2Zm19.15-1.025q-1.825 0-3.25-1.137-1.425-1.138-1.875-2.888h-1.95l-.55-2.4h2.5q.125-.5.288-.875.162-.375.387-.75h-3.575l-.5-2.4h5.3l-.95-2.575h-2.6v-2.4h2.675q.7 0 1.3.387.6.388.825 1.038l1.275 3.5h.7q2.2 0 3.725 1.525t1.525 3.7q0 2.225-1.525 3.75t-3.725 1.525Zm-1.125-4.625 2.275-.825-.975-2.6-2.225.8Z"/></svg>

<svg xmlns="http://www.w3.org/2000/svg" height="24" width="24"><path d="M9.95 21.25Q8.625 21.25 7.688 20.312Q6.75 19.375 6.75 18.05Q6.75 16.7 7.688 15.762Q8.625 14.825 9.95 14.825Q11.3 14.825 12.238 15.762Q13.175 16.7 13.175 18.05Q13.175 19.375 12.238 20.312Q11.3 21.25 9.95 21.25ZM-0.2 19.2V16.825H3.575Q3.825 15.1 5.05 13.725Q6.275 12.35 7.975 11.85L6.625 6.05Q6.625 6.05 6.625 6.05Q6.625 6.05 6.625 6.05H2.675V3.675H6.675Q7.5 3.675 8.137 4.162Q8.775 4.65 8.95 5.475L10.875 13.875H9.925Q8.25 13.875 7.037 15.1Q5.825 16.325 5.825 18.025V19.2ZM18.95 18.175Q17.125 18.175 15.7 17.038Q14.275 15.9 13.825 14.15H11.875L11.325 11.75H13.825Q13.95 11.25 14.113 10.875Q14.275 10.5 14.5 10.125H10.925L10.425 7.725H15.725L14.775 5.15Q14.775 5.15 14.775 5.15Q14.775 5.15 14.775 5.15H12.175V2.75H14.85Q15.55 2.75 16.15 3.137Q16.75 3.525 16.975 4.175L18.25 7.675H18.95Q21.15 7.675 22.675 9.2Q24.2 10.725 24.2 12.9Q24.2 15.125 22.675 16.65Q21.15 18.175 18.95 18.175ZM17.825 13.55 20.1 12.725 19.125 10.125 16.9 10.925Z"/></svg>
